X:1
T:James Gibb editions
T:The Son of Man shall come - Barnby
%%score [ ( 1 2 ) ( 3 4 ) ]
L:1/8
Q:1/4=72
M:4/4
K:Eb
V:1 treble nm="Midi_74"
V:2 treble 
V:3 bass nm="Midi_74"
V:4 bass 
V:1
"^Dies illa (S.M.)""^Joseph Barnby\n(1838-96)""^The Son of Man shall come" C2 | E2 C2 G2 G2 | G6 || %3
 E2 |"^1" G2 E2 B2 B2 | B6 ||[M:4/4] B2 | _d3 d c2 B2 | A2 G2 E2 | F2 | GF EF G3 G | C6 || %12
 F4 =E4 |] %13
V:2
 C2 | E2 C2 G2 D2 | E6 || C2 | C2 C2 E2 D2 | E6 ||[M:4/4] E2 | F3 F =E2 G2 | F2 D2 C2 | C2 | %10
 C2 C2 C2 =B,2 | C6 || C4 C4 |] %13
V:3
 C,2 | E,2 C,2 G,2 =B,2 | C6 || G,2 | E,2 G,2 G,2 A,2 | G,6 ||[M:4/4] G,2 | B,3 A, G,2 C2 | %8
 C2 G,2 G,2 | F,2 | E,2 G,2 D,2 F,2 | E,6 || A,4 G,4 |] %13
V:4
 C,2 | E,2 C,2 G,2 G,,2 | C,6 || C,2 | C,2 C,2 B,,2 B,,2 | E,6 ||[M:4/4] E,2 | B,,3 B,, C,2 =E,2 | %8
 F,2 =B,,2 C,2 | A,,2 | G,,2 G,,2 G,,2 G,,2 | C,6 || F,,4 C,4 |] %13

